docs/public/static/pigment-css/pigment-css-logo-dark.svg

<svg width="562" height="100" fill="none" xmlns="http://www.w3.org/2000/svg"><path fill-rule="evenodd" clip-rule="evenodd" d="M65.34 52.563a21.875 21.875 0 0 1-12.153 3.687c-.62 0-1.431-.026-2.35-.079C42.25 54.688 38.303 58.188 35 63.178l-3.688 5.572V34.375a21.875 21.875 0 1 1 34.029 18.188Z" fill="#0073E6"/><path d="M33.706 85.199a7.813 7.813 0 0 1 0-11.049l5.524-5.524 5.525 5.524A7.813 7.813 0 1 1 33.706 85.2Z" fill="#0073E6"/><path d="M118.713 19.375h17.25c3 0 5.725.35 8.175 1.05 2.45.65 4.525 1.675 6.225 3.075 1.75 1.35 3.1 3.075 4.05 5.175.95 2.05 1.425 4.475 1.425 7.275v.3c0 2.85-.5 5.3-1.5 7.35-.95 2.05-2.3 3.75-4.05 5.1-1.7 1.3-3.775 2.275-6.225 2.925-2.4.65-5.025.975-7.875.975h-7.5V73h-9.975V19.375Zm17.25 26.025c3.3 0 5.8-.775 7.5-2.325 1.75-1.55 2.625-3.825 2.625-6.825v-.3c0-3.2-.9-5.475-2.7-6.825-1.75-1.35-4.225-2.025-7.425-2.025h-7.275v18.3h7.275Zm26.721-11.625h9.075V73h-9.075V33.775Zm4.425-6.45c-1.5 0-2.775-.5-3.825-1.5-1.05-1-1.575-2.225-1.575-3.675 0-1.5.525-2.75 1.575-3.75 1.05-1 2.325-1.5 3.825-1.5s2.775.5 3.825 1.5c1.05 1 1.575 2.25 1.575 3.75 0 1.45-.525 2.675-1.575 3.675-1.05 1-2.325 1.5-3.825 1.5ZM198.338 87.4c-3.1 0-5.775-.325-8.025-.975-2.25-.65-4.15-1.575-5.7-2.775-1.5-1.15-2.675-2.525-3.525-4.125-.85-1.55-1.4-3.275-1.65-5.175h9.15c.4 1.95 1.35 3.45 2.85 4.5 1.55 1.1 3.825 1.65 6.825 1.65 3.55 0 6.25-.875 8.1-2.625 1.9-1.75 2.85-4.4 2.85-7.95V64.15c-.55.95-1.25 1.875-2.1 2.775-.85.85-1.85 1.625-3 2.325a16.7 16.7 0 0 1-3.6 1.575c-1.3.4-2.675.6-4.125.6-2.45 0-4.75-.425-6.9-1.275a16.69 16.69 0 0 1-5.475-3.75c-1.55-1.65-2.775-3.625-3.675-5.925-.9-2.3-1.35-4.875-1.35-7.725v-.525c0-2.75.425-5.3 1.275-7.65.9-2.35 2.125-4.375 3.675-6.075 1.6-1.75 3.475-3.1 5.625-4.05 2.15-1 4.5-1.5 7.05-1.5 3.25 0 5.875.65 7.875 1.95 2 1.3 3.575 2.925 4.725 4.875v-6h9.075v36.3c-.05 5.8-1.875 10.125-5.475 12.975-3.55 2.9-8.375 4.35-14.475 4.35Zm.3-22.95c3.15 0 5.75-1.05 7.8-3.15 2.05-2.15 3.075-5.1 3.075-8.85v-.525c0-3.75-.95-6.65-2.85-8.7-1.85-2.1-4.425-3.15-7.725-3.15-3.4 0-6.025 1.1-7.875 3.3-1.85 2.2-2.775 5.1-2.775 8.7v.6c0 1.8.25 3.45.75 4.95.55 1.45 1.275 2.675 2.175 3.675.95 1 2.05 1.775 3.3 2.325 1.3.55 2.675.825 4.125.825Zm29.229-30.675h9.075v6c.95-1.85 2.45-3.45 4.5-4.8 2.05-1.35 4.525-2.025 7.425-2.025 2.55 0 4.775.575 6.675 1.725 1.95 1.1 3.425 2.875 4.425 5.325 1.5-2.45 3.475-4.225 5.925-5.325 2.45-1.15 4.9-1.725 7.35-1.725 1.8 0 3.475.3 5.025.9 1.6.55 3 1.45 4.2 2.7 1.2 1.2 2.125 2.775 2.775 4.725.7 1.9 1.05 4.2 1.05 6.9V73h-9.075V48.775c0-2.9-.6-5-1.8-6.3-1.2-1.3-2.925-1.95-5.175-1.95-1.15 0-2.25.2-3.3.6-1 .35-1.9.9-2.7 1.65-.8.75-1.45 1.7-1.95 2.85-.45 1.1-.675 2.4-.675 3.9V73h-9.075V48.775c0-2.9-.6-5-1.8-6.3-1.2-1.3-2.925-1.95-5.175-1.95-1.15 0-2.25.2-3.3.6-1 .35-1.9.9-2.7 1.65-.8.75-1.45 1.7-1.95 2.85-.45 1.1-.675 2.4-.675 3.9V73h-9.075V33.775Zm84.89 39.975c-2.9 0-5.575-.45-8.025-1.35-2.4-.95-4.5-2.275-6.3-3.975-1.75-1.75-3.125-3.85-4.125-6.3-.95-2.45-1.425-5.225-1.425-8.325v-.6c0-3.05.475-5.8 1.425-8.25 1-2.5 2.375-4.625 4.125-6.375 1.75-1.8 3.8-3.175 6.15-4.125 2.4-1 5-1.5 7.8-1.5 2.45 0 4.775.375 6.975 1.125a15.85 15.85 0 0 1 5.925 3.525c1.7 1.6 3.05 3.65 4.05 6.15 1.05 2.5 1.575 5.5 1.575 9v2.625h-28.725c.15 3.75 1.125 6.625 2.925 8.625 1.85 2 4.475 3 7.875 3 2.75 0 4.85-.525 6.3-1.575 1.45-1.05 2.35-2.525 2.7-4.425h8.775c-.65 4.15-2.55 7.325-5.7 9.525-3.15 2.15-7.25 3.225-12.3 3.225Zm9.15-24.45c-.25-3.4-1.2-5.875-2.85-7.425-1.6-1.55-3.825-2.325-6.675-2.325-2.75 0-5 .875-6.75 2.625-1.75 1.7-2.85 4.075-3.3 7.125h19.575Zm15.899-15.525h9.075V40c.95-1.9 2.475-3.55 4.575-4.95 2.15-1.4 4.85-2.1 8.1-2.1 1.95 0 3.75.3 5.4.9 1.65.6 3.075 1.525 4.275 2.775 1.2 1.2 2.125 2.775 2.775 4.725.65 1.95.975 4.275.975 6.975V73h-9.075V49.15c0-3-.625-5.175-1.875-6.525-1.25-1.4-3.225-2.1-5.925-2.1-2.55 0-4.725.8-6.525 2.4-1.8 1.55-2.7 3.875-2.7 6.975V73h-9.075V33.775Zm57.773 39.9c-3.9 0-6.85-1-8.85-3s-3-4.875-3-8.625V40.6h-5.25v-6.825h5.25V25.15h9.075v8.625h8.625V40.6h-8.625v20.625c0 1.75.375 3.025 1.125 3.825.8.8 1.925 1.2 3.375 1.2 1.75 0 3.225-.25 4.425-.75v7.2c-.7.25-1.55.475-2.55.675-1 .2-2.2.3-3.6.3ZM444.563 73.75c-16.8 0-26.175-10.725-26.175-27.225v-.6c0-16.125 11.1-27.375 26.025-27.375 12.3 0 21.825 6.15 23.025 18.75h-10.126c-1.124-7.125-5.099-10.8-12.824-10.8-9.45 0-15.6 7.35-15.6 19.35v.6c0 12.075 5.775 19.2 15.675 19.2 7.425 0 12.675-3.75 13.725-11.325h9.75c-1.575 12.9-10.726 19.425-23.475 19.425Zm48.84 0c-14.625 0-20.775-7.275-21.525-17.4h9.6c.675 5.4 2.85 9.9 11.925 9.9 5.925 0 10.125-3.3 10.125-8.25s-2.475-6.825-11.175-8.25c-12.825-1.725-18.9-5.625-18.9-15.675 0-8.775 7.5-15.375 18.675-15.375 11.55 0 18.45 5.25 19.5 15.525h-9.15c-.975-5.625-4.2-8.025-10.35-8.025-6.075 0-9.225 2.925-9.225 7.05 0 4.35 1.8 6.525 11.1 7.875 12.6 1.725 19.125 5.325 19.125 16.05 0 9.3-7.875 16.575-19.725 16.575Zm45.302 0c-14.625 0-20.775-7.275-21.525-17.4h9.6c.675 5.4 2.85 9.9 11.925 9.9 5.925 0 10.125-3.3 10.125-8.25s-2.475-6.825-11.175-8.25c-12.825-1.725-18.9-5.625-18.9-15.675 0-8.775 7.5-15.375 18.675-15.375 11.55 0 18.45 5.25 19.5 15.525h-9.15c-.975-5.625-4.2-8.025-10.35-8.025-6.075 0-9.225 2.925-9.225 7.05 0 4.35 1.8 6.525 11.1 7.875 12.6 1.725 19.125 5.325 19.125 16.05 0 9.3-7.875 16.575-19.725 16.575Z" fill="#fff"/></svg>

<svg width="562" height="100" viewBox="0 0 562 100" fill="none" xmlns="http://www.w3.org/2000/svg">
<path fill-rule="evenodd" clip-rule="evenodd" d="M65.3406 52.5633C61.7433 54.967 57.514 56.2499 53.1875 56.2499C52.5671 56.2499 51.7555 56.2236 50.8375 56.1711C42.25 54.6875 38.303 58.1878 35.0003 63.1779L31.3125 68.7499V34.375C31.3125 30.0485 32.5954 25.8192 34.9991 22.2219C37.4028 18.6246 40.8192 15.8208 44.8163 14.1651C48.8134 12.5095 53.2118 12.0763 57.4551 12.9203C61.6984 13.7644 65.5962 15.8478 68.6555 18.907C71.7147 21.9663 73.7981 25.8641 74.6422 30.1074C75.4862 34.3507 75.053 38.749 73.3974 42.7462C71.7417 46.7433 68.9379 50.1597 65.3406 52.5633Z" fill="url(#paint0_linear_741_107)"/>
<path d="M33.7059 85.1989C30.6549 82.1479 30.6549 77.2013 33.7059 74.1503L39.2302 68.6261L44.7545 74.1503C47.8054 77.2013 47.8054 82.1479 44.7545 85.1989V85.1989C41.7035 88.2499 36.7569 88.2499 33.7059 85.1989V85.1989Z" fill="url(#paint1_linear_741_107)"/>
<path d="M118.713 19.375H135.963C138.963 19.375 141.688 19.725 144.138 20.425C146.588 21.075 148.663 22.1 150.363 23.5C152.113 24.85 153.463 26.575 154.413 28.675C155.363 30.725 155.838 33.15 155.838 35.95V36.25C155.838 39.1 155.338 41.55 154.338 43.6C153.388 45.65 152.038 47.35 150.288 48.7C148.588 50 146.513 50.975 144.063 51.625C141.663 52.275 139.038 52.6 136.188 52.6H128.688V73H118.713V19.375ZM135.963 45.4C139.263 45.4 141.763 44.625 143.463 43.075C145.213 41.525 146.088 39.25 146.088 36.25V35.95C146.088 32.75 145.188 30.475 143.388 29.125C141.638 27.775 139.163 27.1 135.963 27.1H128.688V45.4H135.963ZM162.684 33.775H171.759V73H162.684V33.775ZM167.109 27.325C165.609 27.325 164.334 26.825 163.284 25.825C162.234 24.825 161.709 23.6 161.709 22.15C161.709 20.65 162.234 19.4 163.284 18.4C164.334 17.4 165.609 16.9 167.109 16.9C168.609 16.9 169.884 17.4 170.934 18.4C171.984 19.4 172.509 20.65 172.509 22.15C172.509 23.6 171.984 24.825 170.934 25.825C169.884 26.825 168.609 27.325 167.109 27.325ZM198.338 87.4C195.238 87.4 192.563 87.075 190.313 86.425C188.063 85.775 186.163 84.85 184.613 83.65C183.113 82.5 181.938 81.125 181.088 79.525C180.238 77.975 179.688 76.25 179.438 74.35H188.588C188.988 76.3 189.938 77.8 191.438 78.85C192.988 79.95 195.263 80.5 198.263 80.5C201.813 80.5 204.513 79.625 206.363 77.875C208.263 76.125 209.213 73.475 209.213 69.925V64.15C208.663 65.1 207.963 66.025 207.113 66.925C206.263 67.775 205.263 68.55 204.113 69.25C203.013 69.9 201.813 70.425 200.513 70.825C199.213 71.225 197.838 71.425 196.388 71.425C193.938 71.425 191.638 71 189.488 70.15C187.388 69.25 185.563 68 184.013 66.4C182.463 64.75 181.238 62.775 180.338 60.475C179.438 58.175 178.988 55.6 178.988 52.75V52.225C178.988 49.475 179.413 46.925 180.263 44.575C181.163 42.225 182.388 40.2 183.938 38.5C185.538 36.75 187.413 35.4 189.563 34.45C191.713 33.45 194.063 32.95 196.613 32.95C199.863 32.95 202.488 33.6 204.488 34.9C206.488 36.2 208.063 37.825 209.213 39.775V33.775H218.288V70.075C218.238 75.875 216.413 80.2 212.813 83.05C209.263 85.95 204.438 87.4 198.338 87.4ZM198.638 64.45C201.788 64.45 204.388 63.4 206.438 61.3C208.488 59.15 209.513 56.2 209.513 52.45V51.925C209.513 48.175 208.563 45.275 206.663 43.225C204.813 41.125 202.238 40.075 198.938 40.075C195.538 40.075 192.913 41.175 191.063 43.375C189.213 45.575 188.288 48.475 188.288 52.075V52.675C188.288 54.475 188.538 56.125 189.038 57.625C189.588 59.075 190.313 60.3 191.213 61.3C192.163 62.3 193.263 63.075 194.513 63.625C195.813 64.175 197.188 64.45 198.638 64.45ZM227.867 33.775H236.942V39.775C237.892 37.925 239.392 36.325 241.442 34.975C243.492 33.625 245.967 32.95 248.867 32.95C251.417 32.95 253.642 33.525 255.542 34.675C257.492 35.775 258.967 37.55 259.967 40C261.467 37.55 263.442 35.775 265.892 34.675C268.342 33.525 270.792 32.95 273.242 32.95C275.042 32.95 276.717 33.25 278.267 33.85C279.867 34.4 281.267 35.3 282.467 36.55C283.667 37.75 284.592 39.325 285.242 41.275C285.942 43.175 286.292 45.475 286.292 48.175V73H277.217V48.775C277.217 45.875 276.617 43.775 275.417 42.475C274.217 41.175 272.492 40.525 270.242 40.525C269.092 40.525 267.992 40.725 266.942 41.125C265.942 41.475 265.042 42.025 264.242 42.775C263.442 43.525 262.792 44.475 262.292 45.625C261.842 46.725 261.617 48.025 261.617 49.525V73H252.542V48.775C252.542 45.875 251.942 43.775 250.742 42.475C249.542 41.175 247.817 40.525 245.567 40.525C244.417 40.525 243.317 40.725 242.267 41.125C241.267 41.475 240.367 42.025 239.567 42.775C238.767 43.525 238.117 44.475 237.617 45.625C237.167 46.725 236.942 48.025 236.942 49.525V73H227.867V33.775ZM312.757 73.75C309.857 73.75 307.182 73.3 304.732 72.4C302.332 71.45 300.232 70.125 298.432 68.425C296.682 66.675 295.307 64.575 294.307 62.125C293.357 59.675 292.882 56.9 292.882 53.8V53.2C292.882 50.15 293.357 47.4 294.307 44.95C295.307 42.45 296.682 40.325 298.432 38.575C300.182 36.775 302.232 35.4 304.582 34.45C306.982 33.45 309.582 32.95 312.382 32.95C314.832 32.95 317.157 33.325 319.357 34.075C321.607 34.825 323.582 36 325.282 37.6C326.982 39.2 328.332 41.25 329.332 43.75C330.382 46.25 330.907 49.25 330.907 52.75V55.375H302.182C302.332 59.125 303.307 62 305.107 64C306.957 66 309.582 67 312.982 67C315.732 67 317.832 66.475 319.282 65.425C320.732 64.375 321.632 62.9 321.982 61H330.757C330.107 65.15 328.207 68.325 325.057 70.525C321.907 72.675 317.807 73.75 312.757 73.75ZM321.907 49.3C321.657 45.9 320.707 43.425 319.057 41.875C317.457 40.325 315.232 39.55 312.382 39.55C309.632 39.55 307.382 40.425 305.632 42.175C303.882 43.875 302.782 46.25 302.332 49.3H321.907ZM337.806 33.775H346.881V40C347.831 38.1 349.356 36.45 351.456 35.05C353.606 33.65 356.306 32.95 359.556 32.95C361.506 32.95 363.306 33.25 364.956 33.85C366.606 34.45 368.031 35.375 369.231 36.625C370.431 37.825 371.356 39.4 372.006 41.35C372.656 43.3 372.981 45.625 372.981 48.325V73H363.906V49.15C363.906 46.15 363.281 43.975 362.031 42.625C360.781 41.225 358.806 40.525 356.106 40.525C353.556 40.525 351.381 41.325 349.581 42.925C347.781 44.475 346.881 46.8 346.881 49.9V73H337.806V33.775ZM395.579 73.675C391.679 73.675 388.729 72.675 386.729 70.675C384.729 68.675 383.729 65.8 383.729 62.05V40.6H378.479V33.775H383.729V25.15H392.804V33.775H401.429V40.6H392.804V61.225C392.804 62.975 393.179 64.25 393.929 65.05C394.729 65.85 395.854 66.25 397.304 66.25C399.054 66.25 400.529 66 401.729 65.5V72.7C401.029 72.95 400.179 73.175 399.179 73.375C398.179 73.575 396.979 73.675 395.579 73.675Z" fill="white"/>
<path d="M444.563 73.75C427.763 73.75 418.388 63.025 418.388 46.525V45.925C418.388 29.8 429.488 18.55 444.413 18.55C456.713 18.55 466.238 24.7 467.438 37.3H457.312C456.188 30.175 452.213 26.5 444.488 26.5C435.038 26.5 428.888 33.85 428.888 45.85V46.45C428.888 58.525 434.663 65.65 444.563 65.65C451.988 65.65 457.238 61.9 458.288 54.325H468.038C466.463 67.225 457.312 73.75 444.563 73.75ZM493.403 73.75C478.778 73.75 472.628 66.475 471.878 56.35H481.478C482.153 61.75 484.328 66.25 493.403 66.25C499.328 66.25 503.528 62.95 503.528 58C503.528 53.05 501.053 51.175 492.353 49.75C479.528 48.025 473.453 44.125 473.453 34.075C473.453 25.3 480.953 18.7 492.128 18.7C503.678 18.7 510.578 23.95 511.628 34.225H502.478C501.503 28.6 498.278 26.2 492.128 26.2C486.053 26.2 482.903 29.125 482.903 33.25C482.903 37.6 484.703 39.775 494.003 41.125C506.603 42.85 513.128 46.45 513.128 57.175C513.128 66.475 505.253 73.75 493.403 73.75ZM538.705 73.75C524.08 73.75 517.93 66.475 517.18 56.35H526.78C527.455 61.75 529.63 66.25 538.705 66.25C544.63 66.25 548.83 62.95 548.83 58C548.83 53.05 546.355 51.175 537.655 49.75C524.83 48.025 518.755 44.125 518.755 34.075C518.755 25.3 526.255 18.7 537.43 18.7C548.98 18.7 555.88 23.95 556.93 34.225H547.78C546.805 28.6 543.58 26.2 537.43 26.2C531.355 26.2 528.205 29.125 528.205 33.25C528.205 37.6 530.005 39.775 539.305 41.125C551.905 42.85 558.43 46.45 558.43 57.175C558.43 66.475 550.555 73.75 538.705 73.75Z" fill="white"/>
<defs>
<linearGradient id="paint0_linear_741_107" x1="75.0625" y1="68.7499" x2="20.5433" y2="26.346" gradientUnits="userSpaceOnUse">
<stop offset="0.0833333" stop-color="#007FFF"/>
<stop offset="0.953125" stop-color="#3399FF"/>
</linearGradient>
<linearGradient id="paint1_linear_741_107" x1="50.2787" y1="79.6746" x2="28.1816" y2="79.6746" gradientUnits="userSpaceOnUse">
<stop offset="0.0833333" stop-color="#007FFF"/>
<stop offset="0.953125" stop-color="#3399FF"/>
</linearGradient>
</defs>
</svg>
